!!!!SEGMENT: pl-kk--kk-i-15--010_asola-giovanni-matteo--sancti-mei-qui-in-carne-positi.krn
!!!cenid: 16xx:1127
!!!COM: Asola, Giovanni Matteo
!!!COM-rismID: pe20000387
!!!CDT: <=1532-1609/10/01
!!!CNT: Italian
!!!OTL: Sancti mei qui in carne positi
!!!PDT:
!!!AGN: Sacred
!!!SMS-siglum: PL-Kk
!!!SMS-shelfmark: Kk.I.15
!!!SMS-shelfwork: 010 W
!!!SMS-variant:
!!!SMS-altvar:
!!!NIFC-rismSourceID: 1001146844
!!!NIFC-islandoraID: pl-kk:2631
!!!URL-pdf-islandora: https://repozytorium.nifc.pl/islandora/object/pl-kk%3A2631/datastream/PDF/view
!!!URL-scan: https://polish.musicsources.pl/pl/lokalizacje/galeria/rekopisy/5777 @EN{Scan on Polish Music Herritage in Open Access Website} @PL{Skany w portalu Dziedzictwo Muzyki Polskiej w otwartym dostępie}
!!!ONB-nifc: UWAGA: C (skan 0007), A (skan 0025), T (skan 0042), B (skan 0060 ). Następny motet: Ecce sacerdos magnus
!!!AIN: 1 alto 1 empty 1 tenor 1 vox
!!!key:
**kern	**text	**kern	**text	**kern	**text	**kern	**text
*part4	*part4	*part3	*part3	*part2	*part2	*part1	*part1
*staff4	*staff4	*staff3	*staff3	*staff2	*staff2	*staff1	*staff1
*Iempty	*	*Itenor	*	*Ialto	*	*Ivox	*
*I"Baſso	*	*I"Tenore.	*	*I"Alto	*	*I"Canto.	*
*I'B	*	*I'T	*	*I'A	*	*I'S	*
*clefF4	*	*clefC4	*	*clefC4	*	*clefC3	*
*k[b-]	*	*k[b-]	*	*k[b-]	*	*k[b-]	*
*g:	*	*g:	*	*g:	*	*g:	*
*M2/1	*	*M2/1	*	*M2/1	*	*M2/1	*
*met(C|)	*	*met(C|)	*	*met(C|)	*	*met(C|)	*
=1-	=1-	=1-	=1-	=1-	=1-	=1-	=1-
*all\right	*	*all\right	*	*all\right	*	*all\right	*
!LO:TX:t=P:problem=kreska pseudotaktowa	!	!	!	!	!	!	!
00r	.	1G	San-	00r	.	1r	.
!	!	!LO:TX:t=P:problem=kreska pseudotaktowa	!	!	!	!	!
.	.	1B-	-cti	.	.	1d	San-
=2-	=2-	=2-	=2-	=2-	=2-	=2-	=2-
!	!	!	!	!	!	!LO:TX:t=P:problem=kreska pseudotaktowa	!
.	.	1A	me-	.	.	1f	-cti
.	.	2.G/	.	.	.	1e	me-
!	!	!LO:TX:t=P:problem=kreska pseudotaktowa	!	!	!	!	!
.	.	4A/	.	.	.	.	.
=3-	=3-	=3-	=3-	=3-	=3-	=3-	=3-
*	*	*2\right	*	*	*	*2\right	*
!	!	!	!	!LO:TX:t=P:problem=kreska pseudotaktowa	!	!	!
1D	San-	2B-\	.	0r	.	2d\	-i
.	.	1A	.	.	.	1f	San-
!LO:TX:t=P:problem=kreska pseudotaktowa	!	!	!	!	!	!	!
1F	-cti	.	.	.	.	.	.
!	!	!	!	!	!	!LO:TX:t=P:problem=kreska pseudotaktowa	!
.	.	1d\	.	.	.	2d\	-cti
=4-	=4-	=4-	=4-	=4-	=4-	=4-	=4-
1En	me-	.	.	1G	San-	4e\	me-
.	.	.	.	.	.	4f\	.
!	!	!LO:TX:t=P:problem=kreska pseudotaktowa	!	!	!	!	!
.	.	2c\	i	.	.	4g\	.
.	.	.	.	.	.	4e\	.
!LO:TX:t=P:problem=kreska pseudotaktowa	!	!	!	!	!	!	!
1D	-i	2d,<\	.	1B-	-cti	2.g\	.
.	.	1d\	San-	.	.	.	.
.	.	.	.	.	.	8e\L	.
!	!	!	!	!	!	!LO:TX:t=P:problem=kreska pseudotaktowa	!
.	.	.	.	.	.	8d\J	.
=5-	=5-	=5-	=5-	=5-	=5-	=5-	=5-
!LO:TX:t=P:problem=kreska pseudotaktowa	!	!	!	!LO:TX:t=P:problem=kreska pseudotaktowa	!	!	!
1r	.	.	.	1A	me-	2e\	.
!	!	!LO:TX:t=P:problem=kreska pseudotaktowa	!	!	!	!	!
.	.	2c\	-cti	.	.	2f\	.
*	*ij	*	*	*	*	*	*
1GG	San-	2.B-\	me-	2G/	-i	1g	.
*	*	*	*	*	*ij	*	*
.	.	.	.	1d\	San-	.	.
.	.	8A\L	.	.	.	.	.
!	!	!LO:TX:t=P:problem=kreska pseudotaktowa	!	!	!	!	!
.	.	8G\J	.	.	.	.	.
=6-	=6-	=6-	=6-	=6-	=6-	=6-	=6-
*	*	*custos:G	*	*	*	*custos:d	*
!LO:TX:t=P:problem=kreska pseudotaktowa	!	!	!	!	!	!LO:TX:t=P:problem=kreska pseudotaktowa	!
1BB-	-cti	2F/	.	.	.	1d	-i
*	*	*	*	*2\right	*	*	*
!	!	!LO:LB:g=original	!	!LO:TX:t=P:problem=kreska pseudotaktowa	!	!	!
.	.	1G	.	2B-\	-cti	.	.
!	!	!	!	!	!	!LO:LB:g=original	!
1AA	me-	.	.	1.c	me-	1r	.
.	.	2F/	.	.	.	.	.
=7-	=7-	=7-	=7-	=7-	=7-	=7-	=7-
*	*	*	*	*	*	*	*ij
!LO:TX:t=P:problem=kreska pseudotaktowa	!	!LO:TX:t=P:problem=kreska pseudotaktowa	!	!	!	!	!
1GG	-i	1G	-i	.	.	1.d	San-
!	!	!	!	!LO:TX:t=P:problem=kreska pseudotaktowa	!	!	!
.	.	.	.	2B-\	.	.	.
!LO:TX:t=P:problem=kreska pseudotaktowa	!	!	!	!	!	!	!
1r	.	00r	.	1A	.	.	.
!	!	!	!	!	!	!LO:TX:t=P:problem=kreska pseudotaktowa	!
.	.	.	.	.	.	2c/	-cti
=8-	=8-	=8-	=8-	=8-	=8-	=8-	=8-
!	!	!	!	!LO:TX:t=P:problem=kreska pseudotaktowa	!	!	!
1G	San-	.	.	1G	-i	2.B-/	me-
.	.	.	.	.	.	4c/	.
!LO:TX:t=P:problem=kreska pseudotaktowa	!	!	!	!	!	!	!
1B-	-cti	.	.	2r	.	4d\	.
.	.	.	.	.	.	4e\	.
.	.	.	.	1d\	San-	4f\	.
!	!	!	!	!	!	!LO:TX:t=P:problem=kreska pseudotaktowa	!
.	.	.	.	.	.	4d\	.
=9-	=9-	=9-	=9-	=9-	=9-	=9-	=9-
*custos:G	*	*	*	*	*	*	*
1A	me-	.	.	.	.	2e\	.
!	!	!	!	!LO:TX:t=P:problem=kreska pseudotaktowa	!	!	!
.	.	.	.	2c\	-cti	2f\	.
*2\right	*	*	*	*	*	*	*
!LO:LB:g=original	!	!	!	!	!	!LO:TX:t=P:problem=kreska pseudotaktowa	!
2.G\	.	2r	.	2.B-\	me-	1g	-i
*	*	*	*	*	*	*	*Xij
.	.	1G/	qui	.	.	.	.
*	*	*	*	*custos:G	*	*	*
!LO:TX:t=P:problem=kreska pseudotaktowa	!	!	!	!	!	!	!
4F\	.	.	.	4A\	.	.	.
!	!	!	!	!LO:LB:g=original	!	!	!
=10-	=10-	=10-	=10-	=10-	=10-	=10-	=10-
1En	.	.	.	4G/	.	1r	.
.	.	.	.	4F/	.	.	.
!	!	!LO:TX:t=P:problem=kreska pseudotaktowa	!	!	!	!	!
.	.	2G/	in-	1G	.	.	.
!LO:TX:t=P:problem=kreska pseudotaktowa	!	!	!	!	!	!	!
1D	-i	2A/	-car-	.	.	2r	.
*	*Xij	*	*	*	*	*	*
!	!	!LO:TX:t=P:problem=kreska pseudotaktowa	!	!LO:TX:t=P:problem=kreska pseudotaktowa	!	!	!
.	.	2A/	-ne	2F/	.	1d\	Qui
=11-	=11-	=11-	=11-	=11-	=11-	=11-	=11-
0r	.	2.B-\	po-	2.G/	.	.	.
!	!	!	!	!	!	!LO:TX:t=P:problem=kreska pseudotaktowa	!
.	.	.	.	.	.	2d\	in-
.	.	4A/	.	4F/	.	.	.
.	.	2G/	.	1E	.	2e\	-car-
!	!	!LO:TX:t=P:problem=kreska pseudotaktowa	!	!	!	!LO:TX:t=P:problem=kreska pseudotaktowa	!
.	.	2G/	-si-	.	.	2e\	-ne
=12-	=12-	=12-	=12-	=12-	=12-	=12-	=12-
!	!	!	!	!LO:TX:t=P:problem=kreska pseudotaktowa	!	!	!
2r	.	2A,</	-ti	1D	-i	2.f\	po-
*	*	*	*	*	*Xij	*	*
!	!	!LO:TX:t=P:problem=kreska pseudotaktowa	!	!	!	!	!
1D	qui	2F/	in-	.	.	.	.
.	.	.	.	.	.	4e\	.
.	.	2A/	-car-	0r	.	4d\	.
.	.	.	.	.	.	4c\	.
*	*	*	*	*	*	*custos:c	*
!LO:TX:t=P:problem=kreska pseudotaktowa	!	!LO:TX:t=P:problem=kreska pseudotaktowa	!	!	!	!	!
2D/	in	2A/	-ne	.	.	1d\	.
=13-	=13-	=13-	=13-	=13-	=13-	=13-	=13-
2En\	car-	2G/	po-	.	.	.	.
!	!	!	!	!	!	!LO:LB:g=original	!
!LO:TX:t=P:problem=kreska pseudotaktowa	!	!	!	!	!	!LO:TX:t=P:problem=kreska pseudotaktowa	!
2E\	-ne	2G/	-si-	.	.	2c/	-si-
*	*	*custos:G	*	*	*	*	*
!	!	!LO:TX:t=P:problem=kreska pseudotaktowa	!	!LO:TX:t=P:problem=kreska pseudotaktowa	!	!LO:TX:a:t=P:global:problem=rozdzielacz słów	!
2.F\	po-	1D	-ti	1r	.	2e,<\	-ti
*	*	*	*	*	*	*	*ij
.	.	.	.	.	.	1f\	Qui
8E\L	.	.	.	.	.	.	.
!LO:TX:t=P:problem=kreska pseudotaktowa	!	!	!	!	!	!	!
8D\J	.	.	.	.	.	.	.
!	!	!LO:LB:g=original	!	!	!	!	!
=14-	=14-	=14-	=14-	=14-	=14-	=14-	=14-
1.C	.	1r	.	2rG	.	.	.
.	.	.	.	1G	qui	4e\	in-
!	!	!	!	!	!	!LO:TX:t=P:problem=kreska pseudotaktowa	!
.	.	.	.	.	.	4d\	.
.	.	2r	.	.	.	2e\	-car-
!LO:TX:t=P:problem=kreska pseudotaktowa	!	!	!	!LO:TX:t=P:problem=kreska pseudotaktowa	!	!	!
2BB-/	.	1G/	qui	2G/	in	2d\	-ne-
=15-	=15-	=15-	=15-	=15-	=15-	=15-	=15-
2.AA/	.	.	.	2A/	car-	2.c/	-po-
!	!	!LO:TX:t=P:problem=kreska pseudotaktowa	!	!	!	!	!
.	.	2F/	in-	2A/	-ne	.	.
!	!	!	!	!	!	!LO:TX:t=P:problem=kreska pseudotaktowa	!
4AA/	-si-	.	.	.	.	4d\	.
!LO:TX:t=P:problem=kreska pseudotaktowa	!	!	!	!	!	!	!
1GG	-ti	2.G/	-car-	2.B-\	po-	2e\	.
.	.	.	.	.	.	2d\	.
!	!	!	!	!LO:TX:t=P:problem=kreska pseudotaktowa	!	!	!
.	.	4D/	-ne	4A/	.	.	.
=16-	=16-	=16-	=16-	=16-	=16-	=16-	=16-
1rD	.	2.E-X/	po-	4G/	.	4c/	.
.	.	.	.	4F/	.	4B-/	.
.	.	.	.	1G	.	4A/	.
!	!	!LO:TX:t=P:problem=kreska pseudotaktowa	!	!	!	!LO:TX:t=P:problem=kreska pseudotaktowa	!
.	.	4E-/	-si-	.	.	4G/	.
2rC	.	2D,</	-ti	.	.	2.A/	.
*custos:E-	*	*	*	*	*	*	*
!LO:TX:t=P:problem=kreska pseudotaktowa	!	!	!	!LO:TX:t=P:problem=kreska pseudotaktowa	!	!	!
2BB-/	cer-	2d\	cer-	2F/	-si-	.	.
.	.	.	.	.	.	4A/	-si-
!LO:LB:g=original	!	!	!	!	!	!	!
=17-	=17-	=17-	=17-	=17-	=17-	=17-	=17-
*	*	*	*	*custos:G	*	*	*
!	!	!	!	!	!	!LO:TX:t=P:problem=kreska pseudotaktowa	!
2E-X\	-ta-	2B-\	-ta-	1G	-ti	1G	-ti
*	*	*	*	*	*	*	*Xij
!LO:TX:t=P:problem=kreska pseudotaktowa	!	!LO:TX:t=P:problem=kreska pseudotaktowa	!	!	!	!	!
2C/	-men	2c\	-men	.	.	.	.
2D/	ha-	2A/	ha-	2r	.	0r	.
!	!	!	!	!LO:TX:t=P:problem=kreska pseudotaktowa	!	!	!
2BB-/	-bu-	2B-\	-bu-	2d\	cer-	.	.
=18-	=18-	=18-	=18-	=18-	=18-	=18-	=18-
1C	-i-	1G	-i-	2e\	-ta-	.	.
.	.	.	.	2c\	-men	.	.
*	*	*	*	*	*	*custos:d	*
!LO:TX:t=P:problem=kreska pseudotaktowa	!	!LO:TX:t=P:problem=kreska pseudotaktowa	!	!	!	!	!
1GG	-stis	1G	-stis	2d\	ha-	2r	.
!	!	!	!	!	!	!LO:PB:g=original	!
!	!	!	!	!LO:TX:t=P:problem=kreska pseudotaktowa	!	!LO:TX:t=P:problem=kreska pseudotaktowa	!
.	.	.	.	2B-\	-bu-	2d\	cer-
=19-	=19-	=19-	=19-	=19-	=19-	=19-	=19-
0rD	.	2r	.	1c	-i-	2e-X\	-ta-
*	*	*	*ij	*	*	*	*
!	!	!LO:TX:t=P:problem=kreska pseudotaktowa	!	!	!	!	!
.	.	2A/	cer-	.	.	2c/	-men
!	!	!	!	!LO:TX:a:t=P:global:problem=rozdzielacz słów	!	!	!
.	.	2B-\	-ta-	2G,</	-stis	2d\	ha-
*	*	*	*	*	*ij	*	*
!	!	!LO:TX:t=P:problem=kreska pseudotaktowa	!	!LO:TX:t=P:problem=kreska pseudotaktowa	!	!LO:TX:t=P:problem=kreska pseudotaktowa	!
.	.	2G/	-men	2d\	cer-	2B-/	-bu-
=20-	=20-	=20-	=20-	=20-	=20-	=20-	=20-
*	*	*custos:F	*	*	*	*	*
!LO:TX:t=P:problem=kreska pseudotaktowa	!	!	!	!	!	!	!
1rD	.	2A/	ha-	2c\	-ta-	1c	-i-
!	!	!LO:LB:g=original	!	!	!	!	!
.	.	2F/	-bu-	2A/	-men	.	.
2rC	.	1G	-i-	2.B-\	ha-	2G/	-stis
*	*ij	*	*	*	*	*	*ij
!	!	!	!	!	!	!LO:TX:t=P:problem=kreska pseudotaktowa	!
2G\	cer-	.	.	.	.	2g\	cer-
!	!	!	!	!LO:TX:t=P:problem=kreska pseudotaktowa	!	!	!
.	.	.	.	4c\	-bu-	.	.
=21-	=21-	=21-	=21-	=21-	=21-	=21-	=21-
!	!	!LO:TX:t=P:problem=kreska pseudotaktowa	!	!	!	!	!
2An\	-ta-	1D	-stis	2d\	-i-	2f\	-ta-
!LO:TX:t=P:problem=kreska pseudotaktowa	!	!	!	!LO:TX:t=P:problem=kreska pseudotaktowa	!	!	!
2F\	-men	.	.	2A/	.	1d	-men
2G\	ha-	2rG	.	2B-\	.	.	.
!	!	!	!	!	!	!LO:TX:t=P:problem=kreska pseudotaktowa	!
2Eny\	-bu-	2G/	cer-	2.c\	.	2eny\	ha-
=22-	=22-	=22-	=22-	=22-	=22-	=22-	=22-
1F	-i-	2.A/	-ta-	.	.	2c/	-bu-
.	.	.	.	4B-\	.	.	.
!	!	!	!	!LO:TX:t=P:problem=kreska pseudotaktowa	!	!	!
.	.	.	.	2A/	.	1f	-i-
!	!	!LO:TX:t=P:problem=kreska pseudotaktowa	!	!	!	!	!
.	.	4B-\	-men	.	.	.	.
*	*	*	*	*custos:A	*	*	*
!LO:TX:t=P:problem=kreska pseudotaktowa	!	!	!	!	!	!	!
1C	-stis	2c\	ha-	2G,</	-stis	.	.
!	!	!	!	!LO:PB:g=original	!	!	!
.	.	2c\	-bu-	1A\	cer-	2e\	.
=23-	=23-	=23-	=23-	=23-	=23-	=23-	=23-
!	!	!	!	!	!	!LO:TX:t=P:problem=kreska pseudotaktowa	!
2r	.	2F/	-i-	.	.	1f	-stis
!LO:TX:t=P:problem=kreska pseudotaktowa	!	!LO:TX:t=P:problem=kreska pseudotaktowa	!	!	!	!	!
2D/	cer-	2G/	.	1B-	-ta-	.	.
*custos:C	*	*	*	*	*	*	*
*	*	*lig	*	*	*	*	*
2E-X\	-ta-	1A	.	.	.	1r	.
!LO:PB:g=original	!	!	!	!	!	!	!
!LO:TX:t=P:problem=kreska pseudotaktowa	!	!	!	!LO:TX:t=P:problem=kreska pseudotaktowa	!	!	!
2C/	-men	.	.	2c\	-men	.	.
=24-	=24-	=24-	=24-	=24-	=24-	=24-	=24-
*	*	*col	*	*	*	*	*
2D/	ha-	2.G/	.	2A/	ha-	2r	.
*	*	*	*	*	*	*custos:e	*
!	!	!	!	!	!	!LO:TX:t=P:problem=kreska pseudotaktowa	!
2BB-/	-bu-	.	.	2B-\	-bu-	2d\	cer-
*	*	*Xlig	*	*	*	*	*
.	.	4F/	.	.	.	.	.
*	*	*Xcol	*	*	*	*	*
!LO:TX:t=P:problem=kreska pseudotaktowa	!	!	!	!LO:TX:t=P:problem=kreska pseudotaktowa	!	!LO:LB:g=original	!
1C	-i-	2Eny/	.	1G	-i-	2e\	-ta-
!	!	!LO:TX:t=P:problem=kreska pseudotaktowa	!	!	!	!	!
.	.	2D/	-stis	.	.	2c/	-men
=25-	=25-	=25-	=25-	=25-	=25-	=25-	=25-
2GG,</	-stis	2r	.	2G,</	-stis	2d\	ha-
!LO:TX:t=P:problem=kreska pseudotaktowa	!	!	!	!	!	!LO:TX:t=P:problem=kreska pseudotaktowa	!
2GG/	cer-	2G/	cer-	2d\	cer-	2B-/	-bu-
2C/	-ta-	2G/	-ta-	2e\	-ta-	1c	-i-
!LO:TX:t=P:problem=kreska pseudotaktowa	!	!LO:TX:t=P:problem=kreska pseudotaktowa	!	!LO:TX:t=P:problem=kreska pseudotaktowa	!	!	!
2AA/	-men	2F/	-men-	2c\	-men	.	.
=26-	=26-	=26-	=26-	=26-	=26-	=26-	=26-
!	!	!	!	!	!	!LO:TX:t=P:problem=kreska pseudotaktowa	!
2BB-/	ha-	2D/	-ha-	2d\	ha-	1G	-stis
*	*	*custos:C	*	*	*	*	*
2GG/	-bu-	2D/	-bu-	2B-\	-bu-	.	.
!	!	!LO:LB:g=original	!	!	!	!	!
2.AA/	-i-	2.C/	-i-	1c	-i-	2r	.
.	.	.	.	.	.	2c/	cer-
!LO:TX:t=P:problem=kreska pseudotaktowa	!	!	!	!	!	!	!
4BB-/	.	4D/	.	.	.	.	.
=27-	=27-	=27-	=27-	=27-	=27-	=27-	=27-
!	!	!LO:TX:t=P:problem=kreska pseudotaktowa	!	!LO:TX:t=P:problem=kreska pseudotaktowa	!	!	!
1C	.	1E	.	1G	-stis	2c/	-ta-
!	!	!	!	!	!	!LO:TX:t=P:problem=kreska pseudotaktowa	!
.	.	.	.	.	.	2G/	-men
!LO:TX:t=P:problem=kreska pseudotaktowa	!	!	!	!	!	!	!
1GG	-stis	2D,</	-stis	2r	.	2B-/	ha-
!	!	!LO:TX:t=P:problem=kreska pseudotaktowa	!	!LO:TX:t=P:problem=kreska pseudotaktowa	!	!	!
.	.	2G/	cer-	2d\	cer-	2B-/	-bu-
=28-	=28-	=28-	=28-	=28-	=28-	=28-	=28-
!	!	!	!	!LO:TX:t=P:problem=brak źródła-urwana kartka	!	!LO:TX:t=P:problem=kreska pseudotaktowa	!
2rC	.	2G/	-ta-	0ryy	.	1A	-i-
2D/	cer-	2F/	-men	.	.	.	.
.	.	.	.	.	.	.	.
2E-X\	-ta-	2G/	ha-	.	.	2G,</	-stis
!LO:TX:t=P:problem=kreska pseudotaktowa	!	!LO:TX:t=P:problem=kreska pseudotaktowa	!	!	!	!	!
2C/	-men	2c\	-bu-	.	.	2g\	cer-
!	!	!	!	!LO:LB:g=original	!	!	!
=29-	=29-	=29-	=29-	=29-	=29-	=29-	=29-
*custos:BB-	*	*	*	*	*	*	*
2D/	ha-	4A\	-i-	1d	-i-	2f\	-ta-
.	.	8G\L	.	.	.	.	.
.	.	8A\J	.	.	.	.	.
!LO:LB:g=original	!	!	!	!	!	!LO:TX:t=P:problem=kreska pseudotaktowa	!
2BB-/	-bu-	4B-\	.	.	.	2d,<\	-men
.	.	4A\	.	.	.	.	.
*lig	*	*	*	*	*	*	*
*	*	*	*	*	*	*custos:e	*
1C	-i-	4G/	.	2.c\	.	2e-X\	ha-
.	.	4F/	.	.	.	.	.
!	!	!	!	!	!	!LO:LB:g=original	!
.	.	1G/	.	.	.	2e-\	-bu-
!	!	!	!	!LO:TX:t=P:problem=kreska pseudotaktowa	!	!	!
.	.	.	.	4B-\	.	.	.
=30-	=30-	=30-	=30-	=30-	=30-	=30-	=30-
1D	.	.	.	1A	.	2.d\	-i-
.	.	2F/	.	.	.	.	.
!	!	!	!	!	!	!LO:TX:t=P:problem=kreska pseudotaktowa	!
.	.	.	.	.	.	4c/	.
*Xlig	*	*	*	*	*	*	*
!	!	!LO:TX:t=P:problem=kreska pseudotaktowa	!	!	!	!	!
0GG	-stis	1G	-stis	2G,</	-stis	4B-/	.
*	*Xij	*	*Xij	*	*Xij	*	*
.	.	.	.	.	.	4A/	.
!	!	!	!	!LO:TX:t=P:problem=kreska pseudotaktowa	!	!	!
.	.	.	.	2G/	mer-	2B-/	.
=31-	=31-	=31-	=31-	=31-	=31-	=31-	=31-
!LO:TX:t=P:problem=kreska pseudotaktowa	!	!	!	!	!	!LO:TX:t=P:problem=kreska pseudotaktowa	!
.	.	2rG	.	1d	-ce-	1G	-stis
*	*	*	*	*	*	*	*Xij
.	.	2D/	mer-	.	.	.	.
!	!	!LO:TX:t=P:problem=kreska pseudotaktowa	!	!	!	!	!
2rC	.	1G	-ce-	2B-\	-dem	0r	.
!	!	!	!	!LO:TX:t=P:problem=kreska pseudotaktowa	!	!	!
2GG/	mer-	.	.	2G/	la-	.	.
=32-	=32-	=32-	=32-	=32-	=32-	=32-	=32-
*	*	*custos:D	*	*	*	*	*
!LO:TX:t=P:problem=kreska pseudotaktowa	!	!	!	!	!	!	!
1D	-ce-	2F/	-dem	2.A/	-bo-	.	.
!	!	!LO:LB:g=original	!	!	!	!	!
.	.	2D/	la-	.	.	.	.
.	.	.	.	8G/L	.	.	.
!	!	!	!	!LO:TX:t=P:problem=kreska pseudotaktowa	!	!	!
.	.	.	.	8F/J	.	.	.
2C,</	-dem	1E	-bo-	2G/	.	2r	.
!	!	!	!	!	!	!LO:TX:t=P:problem=kreska pseudotaktowa	!
2AA/	la-	.	.	1A\	.	2A/	mer-
=33-	=33-	=33-	=33-	=33-	=33-	=33-	=33-
!LO:TX:t=P:problem=kreska pseudotaktowa	!	!LO:TX:t=P:problem=kreska pseudotaktowa	!	!	!	!	!
1BB-	-bo-	1D	-ris	.	.	1d	-ce-
.	.	.	.	2G/	-ris	.	.
!	!	!	!	!LO:TX:t=P:problem=kreska pseudotaktowa	!	!	!
2AA,</	-ris	1rA	.	1A	.	2c/	-dem
*	*ij	*	*	*	*	*	*
!	!	!	!	!	!	!LO:TX:t=P:problem=kreska pseudotaktowa	!
2D/	mer-	.	.	.	.	2A/	la-
=34-	=34-	=34-	=34-	=34-	=34-	=34-	=34-
!LO:TX:t=P:problem=kreska pseudotaktowa	!	!	!	!	!	!	!
1G	-ce-	2rG	.	0r	.	1B-	-bo-
*	*	*	*ij	*	*	*	*
!	!	!LO:TX:t=P:problem=kreska pseudotaktowa	!	!	!	!	!
.	.	2G/	mer-	.	.	.	.
2F\	-dem	1d	-ce-	.	.	2A/	-ris
*	*	*	*	*	*	*	*ij
!	!	!	!	!	!	!LO:TX:t=P:problem=kreska pseudotaktowa	!
2D/	la-	.	.	.	.	2d\	mer-
=35-	=35-	=35-	=35-	=35-	=35-	=35-	=35-
1E-X	-bo-	2B-\	-dem	2r	.	1g	-ce-
*	*	*	*	*	*ij	*	*
!	!	!LO:TX:t=P:problem=kreska pseudotaktowa	!	!LO:TX:t=P:problem=kreska pseudotaktowa	!	!	!
.	.	2c\	la-	2G/	mer-	.	.
!LO:TX:t=P:problem=kreska pseudotaktowa	!	!	!	!	!	!	!
1D	-ris	2A/	-bo-	1d	-ce-	2f\	-dem
.	.	2B-\	.	.	.	2d\	la-
=36-	=36-	=36-	=36-	=36-	=36-	=36-	=36-
!	!	!LO:TX:t=P:problem=kreska pseudotaktowa	!	!	!	!	!
*	*	*	*	*	*	*lig	*
1r	.	1A	-ris	2c\	-dem	1e-X	-bo-
.	.	.	.	2A/	la-	.	.
*	*	*	*	*custos:A	*	*	*
!	!	!	!	!LO:TX:t=P:problem=kreska pseudotaktowa	!	!	!
*	*	*	*	*	*	*col	*
2r	.	1r	.	1B-	-bo-	2.d\	.
!LO:TX:t=P:problem=kreska pseudotaktowa	!	!	!	!	!	!	!
2GG/	mer-	.	.	.	.	.	.
*	*	*	*	*	*	*Xlig	*
*	*	*	*	*	*	*custos:f	*
.	.	.	.	.	.	4e-\	.
*	*	*	*	*	*	*Xcol	*
!	!	!	!	!LO:LB:g=original	!	!LO:LB:g=original	!
=37-	=37-	=37-	=37-	=37-	=37-	=37-	=37-
*custos:C	*	*	*	*	*	*	*
!LO:TX:t=P:problem=kreska pseudotaktowa	!	!	!	!LO:TX:t=P:problem=kreska pseudotaktowa	!	!	!
1D	-ce-	2r	.	1A	-ris	1f	.
!	!	!LO:TX:t=P:problem=kreska pseudotaktowa	!	!	!	!	!
.	.	2D/	mer-	.	.	.	.
!LO:LB:g=original	!	!	!	!	!	!LO:TX:t=P:problem=kreska pseudotaktowa	!
2C/	-dem	1A	-ce-	2r	.	1eny	-ris
2AA/	la-	.	.	2A/	mer-	.	.
=38-	=38-	=38-	=38-	=38-	=38-	=38-	=38-
!	!	!	!	!LO:TX:t=P:problem=kreska pseudotaktowa	!	!	!
1BB-	-bo-	2F/	-dem	1d	-ce-	1r	.
!	!	!LO:TX:t=P:problem=kreska pseudotaktowa	!	!	!	!	!
.	.	2D/	la-	.	.	.	.
!LO:TX:t=P:problem=kreska pseudotaktowa	!	!	!	!	!	!	!
1AA	-ris	1E	-bo-	2c\	-dem	2r	.
!	!	!	!	!LO:TX:t=P:problem=kreska pseudotaktowa	!	!LO:TX:t=P:problem=kreska pseudotaktowa	!
.	.	.	.	2A/	la-	2c/	mer-
=39-	=39-	=39-	=39-	=39-	=39-	=39-	=39-
2rC	.	2D,</	-ris	1B-	-bo-	1d	-ce-
*	*	*custos:E	*	*	*	*	*
2GG/	mer-	1G	mer-	.	.	.	.
!LO:TX:t=P:problem=kreska pseudotaktowa	!	!	!	!	!	!	!
1C	-ce-	.	.	2G,</	-ris	2c/	-dem
!	!	!LO:LB:g=original	!	!LO:TX:t=P:problem=kreska pseudotaktowa	!	!LO:TX:t=P:problem=kreska pseudotaktowa	!
.	.	2E/	-ce-	2G/	mer-	2c/	la-
=40-	=40-	=40-	=40-	=40-	=40-	=40-	=40-
2BB-/	-dem	2F/	-dem	1B-	-ce-	2.d\	-bo-
2GG/	la-	2G/	la-	.	.	.	.
.	.	.	.	.	.	4e\	.
*lig	*	*lig	*	*	*	*	*
1D	-bo-	1F	-bor-	2A/	-dem	2f\	.
.	.	.	.	2.B-\	la-	1d\	.
=41-	=41-	=41-	=41-	=41-	=41-	=41-	=41-
!LO:TX:t=P:problem=♭ above	!	!LO:TX:t=P:problem=kreska pseudotaktowa	!	!	!	!	!
1E-X	.	1G	-ris	.	.	.	.
.	.	.	.	4A/	.	.	.
!	!	!	!	!	!	!LO:TX:t=P:problem=kreska pseudotaktowa	!
.	.	.	.	1G	-bo-	2c/	.
*Xlig	*	*Xlig	*Xij	*	*	*	*
!LO:TX:t=P:problem=kreska pseudotaktowa	!	!	!	!	!	!	!
1D,<	-ris	1A	E-	.	.	0d,<	-ris
*	*Xij	*	*	*	*	*	*Xij
!	!	!	!	!LO:TX:t=P:problem=kreska pseudotaktowa	!	!	!
.	.	.	.	2F/	.	.	.
=42-	=42-	=42-	=42-	=42-	=42-	=42-	=42-
!	!	!LO:N:acc=#	!	!LO:TX:t=P:problem=kreska pseudotaktowa	!	!	!
0GG	E-	1.Bn	-go	1G,<	-ris	.	.
*	*	*	*	*	*Xij	*	*
.	.	.	.	1d	E-	0g	E-
!	!	!LO:TX:t=P:problem=kreska pseudotaktowa	!	!	!	!	!
.	.	2B\	red-	.	.	.	.
=43-	=43-	=43-	=43-	=43-	=43-	=43-	=43-
*lig	*	*	*	*	*	*	*
!	!	!	!	!LO:TX:t=P:problem=kreska pseudotaktowa	!	!	!
1C	-go	1c	-dam	1e	-go	.	.
!LO:TX:t=P:problem=kreska pseudotaktowa	!	!	!	!	!	!LO:TX:t=P:problem=kreska pseudotaktowa	!
1D	.	2A/	vo-	2.d\	red-	1f	-go
.	.	2.B-\	.	.	.	.	.
.	.	.	.	4c\	.	.	.
*Xlig	*	*	*	*	*	*	*
=44-	=44-	=44-	=44-	=44-	=44-	=44-	=44-
!LO:SIC:v:s=1E-	!	!	!	!	!	!	!
1Eny	red-	.	.	1B-	.	1.e-X	red-
.	.	4A/	.	.	.	.	.
.	.	4G/	.	.	.	.	.
!	!	!LO:TX:t=P:problem=kreska pseudotaktowa	!	!	!	!	!
.	.	4F/	.	.	.	.	.
*	*	*	*	*custos:B-	*	*	*
!	!	!	!	!LO:TX:t=P:problem=kreska pseudotaktowa	!	!	!
1C	-dam	2G/	.	1c	-dam	.	.
!	!	!	!	!	!	!LO:TX:t=P:problem=kreska pseudotaktowa	!
.	.	2.A/	.	.	.	2e-\	-dam
!	!	!	!	!LO:LB:g=original	!	!	!
=45-	=45-	=45-	=45-	=45-	=45-	=45-	=45-
0D	vo-	.	.	2B-\	vo-	0d	vo-
.	.	4G/	.	.	.	.	.
.	.	1G	.	4A/	.	.	.
.	.	.	.	4G/	.	.	.
.	.	.	.	1A	.	.	.
.	.	2F/	.	.	.	.	.
=46-	=46-	=46-	=46-	=46-	=46-	=46-	=46-
*	*	*	*	*	*	*custos:e	*
*	*	*custos:G	*	*	*	*	*
!	!	!	!	!LO:TX:t=P:problem=kreska pseudotaktowa	!	!	!
!LO:TX:t=P:problem=kreska pseudotaktowa	!	!	!	!LO:N:acc=#	!	!LO:TX:t=P:problem=kreska pseudotaktowa	!
0GG	-bis	0G	-bis	0Bn	-bis	0d	-bis
!	!	!LO:PB:g=original	!	!	!	!LO:LB:g=original	!
=47-	=47-	=47-	=47-	=47-	=47-	=47-	=47-
*custos:C	*	*	*	*	*	*	*
!LO:TX:t=P:problem=kreska pseudotaktowa	!	!LO:TX:t=P:problem=kreska pseudotaktowa	!	!	!	!LO:TX:t=P:problem=kreska pseudotaktowa	!
1rD;	.	1rA	.	1rA	.	1r	.
!LO:LB:g=original	!	!	!	!	!	!	!
0C	Ve-	0G	Ve-	0c	Ve-	0eny	Ve-
=48-	=48-	=48-	=48-	=48-	=48-	=48-	=48-
.	.	.	.	.	.	.	.
!	!	!LO:TX:t=P:problem=kreska pseudotaktowa	!	!LO:TX:t=P:problem=kreska pseudotaktowa	!	!LO:TX:t=P:problem=kreska pseudotaktowa	!
1D	-ni-	1F	-ni-	1A	-ni-	1f	-ni-
=49-	=49-	=49-	=49-	=49-	=49-	=49-	=49-
!LO:TX:t=P:problem=kreska pseudotaktowa	!	!	!	!	!	!	!
1C	-te	1G	-te	1c	-te	1e	-te
1.F	Be-	1.A	Be-	2c\	Be-	1.c	Be-
!	!	!	!	!LO:TX:t=P:problem=kreska pseudotaktowa	!	!	!
.	.	.	.	2A/	-ne-	.	.
=50-	=50-	=50-	=50-	=50-	=50-	=50-	=50-
.	.	.	.	2F/	-di-	.	.
!LO:TX:t=P:problem=kreska pseudotaktowa	!	!LO:TX:t=P:problem=kreska pseudotaktowa	!	!	!	!LO:TX:t=P:problem=kreska pseudotaktowa	!
2En\	-ne-	2G/	-ne-	1c	.	2c/	-ne-
1D	-di-	1F	-di-	.	.	1d	-di-
!	!	!	!	!LO:TX:t=P:problem=kreska pseudotaktowa	!	!	!
.	.	.	.	2B-y\	.	.	.
=51-	=51-	=51-	=51-	=51-	=51-	=51-	=51-
!LO:TX:t=P:problem=kreska pseudotaktowa	!	!	!	!LO:TX:t=P:problem=kreska pseudotaktowa	!	!LO:TX:t=P:problem=kreska pseudotaktowa	!
1C,<	-cti	2G/	-cti	1c,<	-cti	1e	-cti
.	.	2.A/	Pa-	.	.	.	.
1.D	Pa-	.	.	1.A	Pa-	2f\	Pa-
.	.	4G/	.	.	.	.	.
.	.	4F/	.	.	.	2e\	-tris
!	!	!LO:TX:t=P:problem=kreska pseudotaktowa	!	!	!	!	!
.	.	4E/	.	.	.	.	.
=52-	=52-	=52-	=52-	=52-	=52-	=52-	=52-
.	.	2D/	.	.	.	2f\	me-
!LO:TX:t=P:problem=kreska pseudotaktowa	!	!	!	!LO:TX:t=P:problem=kreska pseudotaktowa	!	!LO:TX:t=P::problem=kreska pseudotaktowa&colon;między nutą a kropką	!
2AA/	-tris	2C/	-tris	2A/	-tris	2.e\	.
*	*	*lig	*	*	*	*	*
1BB-	me-	1D	me-	2F/	me-	.	.
.	.	.	.	.	.	4d\	.
.	.	.	.	2G/	.	1d\	.
=53-	=53-	=53-	=53-	=53-	=53-	=53-	=53-
*	*	*	*	*custos:F	*	*	*
!LO:TX:t=P:problem=kreska pseudotaktowa	!	!	!	!LO:TX:t=P:problem=kreska pseudotaktowa	!	!	!
1AA	-i	1E	.	1A	-i	.	.
.	.	.	.	.	.	2c/	.
*	*	*Xlig	*	*	*	*	*
!	!	!	!	!LO:LB:g=original	!	!	!
!	!	!LO:TX:t=P:problem=kreska pseudotaktowa	!	!	!	!LO:TX:t=P:problem=kreska pseudotaktowa	!
2r	.	1D	-i	2r	.	1d	-i
!	!	!	!	!LO:TX:t=P:problem=kreska pseudotaktowa	!	!	!
2D/	per-	.	.	2F/	per-	.	.
=54-	=54-	=54-	=54-	=54-	=54-	=54-	=54-
2D/	-ci-	0rA	.	2F/	-ci-	1r	.
!LO:TX:t=P:problem=kreska pseudotaktowa	!	!	!	!LO:TX:t=P:problem=kreska pseudotaktowa	!	!	!
2C/	-pi-	.	.	2G/	-pi-	.	.
!LO:TX:t=P:problem=kreska pseudotaktowa	!	!	!	!	!	!	!
1F	-te	.	.	1A	-te	2r	.
*	*	*	*	*	*	*custos:d	*
!	!	!	!	!	!	!LO:TX:t=P:problem=kreska pseudotaktowa	!
.	.	.	.	.	.	2d\	per-
!	!	!	!	!	!	!LO:LB:g=original	!
=55-	=55-	=55-	=55-	=55-	=55-	=55-	=55-
1En	Reg-	2rG	.	2.G/	Re-	2d\	-ci-
.	.	2G/	per-	.	.	2c/	-pi-
!	!	!	!	!LO:TX:t=P:problem=kreska pseudotaktowa	!	!	!
.	.	.	.	4A/	.	.	.
*custos:GG	*	*	*	*	*	*	*
!LO:TX:t=P:problem=kreska pseudotaktowa	!	!	!	!	!	!LO:TX:t=P:problem=kreska pseudotaktowa	!
1D	-num	2F/	-ci-	4B-\	.	1f	-te
.	.	.	.	4A\	.	.	.
*	*	*custos:A	*	*	*	*	*
!	!	!LO:TX:t=P:problem=kreska pseudotaktowa	!	!	!	!	!
.	.	2D/	-pi-	1d\	.	.	.
!LO:LB:g=original	!	!LO:LB:g=original	!	!	!	!	!
=56-	=56-	=56-	=56-	=56-	=56-	=56-	=56-
!LO:TX:t=P:problem=kreska pseudotaktowa	!	!	!	!	!	!	!
1rD	.	1A	-te	.	.	1e	Re-
!	!	!	!	!LO:TX:t=P:problem=kreska pseudotaktowa	!	!	!
.	.	.	.	2c\	-gnum	.	.
!	!	!LO:TX:t=P:problem=kreska pseudotaktowa	!	!LO:TX:t=P:problem=kreska pseudotaktowa	!	!	!
2rC	.	1B-	Re-	1d	.	2d\	-gnum
*	*	*	*	*	*	*	*ij
!LO:TX:t=P:problem=kreska pseudotaktowa	!	!	!	!	!	!LO:TX:t=P:problem=kreska pseudotaktowa	!
2GG/	mer-	.	.	.	.	2g\	per-
=57-	=57-	=57-	=57-	=57-	=57-	=57-	=57-
1D	-ce-	2A,</	-gnum	2r	.	2f\	-ci-
*	*	*	*ij	*	*	*	*
!	!	!LO:TX:t=P:problem=kreska pseudotaktowa	!	!LO:TX:t=P:problem=kreska pseudotaktowa	!	!	!
.	.	2F/	per-	2A/	per-	2d\	-pi-
2C/	-dem	2G/	-ci-	1c	-ci-	2e\	-te
!LO:TX:t=P:problem=kreska pseudotaktowa	!	!	!	!	!	!LO:TX:t=P::problem=kreska pseudotaktowa&colon;między nutą a kropką	!
2AA/	la-	2A/	-pi-	.	.	2.f\	re-
=58-	=58-	=58-	=58-	=58-	=58-	=58-	=58-
*lig	*	*	*	*	*	*	*
!	!	!LO:TX:t=P:problem=kreska pseudotaktowa	!	!	!	!	!
1BB-	-bo-	1D	-te	2F/	-pi-	.	.
.	.	.	.	.	.	4e\	.
!	!	!	!	!LO:TX:t=P:problem=kreska pseudotaktowa	!	!	!
.	.	.	.	2G/	-te	1d	.
1AA	.	1E	Re-	1A	re-	.	.
.	.	.	.	.	.	2c/	.
*Xlig	*	*	*	*	*	*	*
=59-	=59-	=59-	=59-	=59-	=59-	=59-	=59-
!LO:TX:t=P:problem=kreska pseudotaktowa	!	!LO:TX:t=P:problem=kreska pseudotaktowa	!	!	!	!LO:TX:t=P:problem=kreska pseudotaktowa	!
0D	-ris	1D	-gnum	2A,</	-gnum	1d	-gnum
*	*	*	*Xij	*	*	*	*Xij
!	!	!	!	!LO:TX:t=P:problem=kreska pseudotaktowa	!	!	!
.	.	.	.	2A/	mer-	.	.
.	.	2rD	.	1d	-ce-	0r	.
.	.	2D/	mer-	.	.	.	.
=60-	=60-	=60-	=60-	=60-	=60-	=60-	=60-
*	*	*	*	*custos:G	*	*	*
!	!	!LO:TX:t=P:problem=kreska pseudotaktowa	!	!	!	!	!
2rC	.	1G	-ce-	2B-\	-dem	.	.
!	!	!	!	!LO:LB:g=original	!	!	!
*	*ij	*	*	*	*	*	*
!	!	!	!	!LO:TX:t=P:problem=kreska pseudotaktowa	!	!	!
2GG/	mer-	.	.	2G/	la-	.	.
!LO:TX:t=P:problem=kreska pseudotaktowa	!	!	!	!	!	!LO:TX:t=P:problem=kreska pseudotaktowa	!
1D	-ce-	2F/	-dem	2.A/	-bo-	1r	.
!	!	!LO:TX:t=P:problem=kreska pseudotaktowa	!	!	!	!	!
.	.	2D/	la-	.	.	.	.
.	.	.	.	8G/L	.	.	.
!	!	!	!	!LO:TX:t=P:problem=kreska pseudotaktowa	!	!	!
.	.	.	.	8F/J	.	.	.
=61-	=61-	=61-	=61-	=61-	=61-	=61-	=61-
2C/	-dem	1E	-bo-	2G,</	.	2r	.
*	*	*	*	*	*	*custos:d	*
2AA/	la-	.	.	1A	.	2A/	mer-
!LO:TX:t=P:problem=kreska pseudotaktowa	!	!LO:TX:t=P:problem=kreska pseudotaktowa	!	!	!	!LO:LB:g=original	!
1BB-	-bo-	1D	-ris	.	.	1d	-ce-
.	.	.	.	2G/	.	.	.
=62-	=62-	=62-	=62-	=62-	=62-	=62-	=62-
!	!	!	!	!LO:TX:t=P:problem=kreska pseudotaktowa	!	!	!
2AA,</	-ris	1rA	.	1A	-ris	2c/	-dem
!LO:TX:t=P:problem=kreska pseudotaktowa	!	!	!	!	!	!LO:TX:t=P:problem=kreska pseudotaktowa	!
2D/	mer-	.	.	.	.	2A/	la-
*	*	*custos:G	*	*	*	*	*
1G	-ce-	2rG	.	0r	.	1B-	-bo-
!	!	!LO:LB:g=original	!	!	!	!	!
*	*	*	*ij	*	*	*	*
!	!	!LO:TX:t=P:problem=kreska pseudotaktowa	!	!	!	!	!
.	.	2G/	mer-	.	.	.	.
=63-	=63-	=63-	=63-	=63-	=63-	=63-	=63-
2F\	-dem	1d	-ce-	.	.	2A/	-ris
*	*	*	*	*	*	*	*ij
!	!	!	!	!	!	!LO:TX:t=P:problem=kreska pseudotaktowa	!
2D/	la-	.	.	.	.	2d\	mer-
1E-X	-bo-	2B-\	-dem	2r	.	1g	-ce-
*	*	*	*	*	*ij	*	*
!	!	!LO:TX:t=P:problem=kreska pseudotaktowa	!	!LO:TX:t=P:problem=kreska pseudotaktowa	!	!	!
.	.	2c\	la-	2G/	mer-	.	.
=64-	=64-	=64-	=64-	=64-	=64-	=64-	=64-
*custos:GG	*	*	*	*	*	*	*
!LO:TX:t=P:problem=kreska pseudotaktowa	!	!	!	!	!	!	!
1D	-ris	2A/	-bo-	1d	-ce-	2f\	-dem
!	!	!	!	!	!	!LO:TX:t=P:problem=kreska pseudotaktowa	!
.	.	2B-\	.	.	.	2d\	la-
!LO:LB:g=original	!	!	!	!	!	!	!
!LO:TX:t=P:problem=kreska pseudotaktowa	!	!LO:TX:t=P:problem=kreska pseudotaktowa	!	!	!	!	!
*	*	*	*	*	*	*lig	*
1r	.	1A	-ris	2c\	-dem	1e	-bo-
!	!	!	!	!LO:TX:t=P:problem=kreska pseudotaktowa	!	!	!
.	.	.	.	2A/	la-	.	.
=65-	=65-	=65-	=65-	=65-	=65-	=65-	=65-
*	*	*	*	*	*	*col	*
2r	.	1r	.	1B-	-bo-	2.d\	.
!LO:TX:t=P:problem=kreska pseudotaktowa	!	!	!	!	!	!	!
2GG/	mer-	.	.	.	.	.	.
*	*	*	*	*	*	*Xlig	*
.	.	.	.	.	.	4e\	.
*	*	*	*	*	*	*Xcol	*
!	!	!	!	!LO:TX:t=P:problem=kreska pseudotaktowa	!	!	!
1D	-ce-	2r	.	1A	-ris	1f	.
.	.	2D/	mer-	.	.	.	.
=66-	=66-	=66-	=66-	=66-	=66-	=66-	=66-
!	!	!LO:TX:t=P:problem=kreska pseudotaktowa	!	!	!	!LO:TX:t=P:problem=kreska pseudotaktowa	!
2C/	-dem	1A	-ce-	2r	.	1e	-ris
!LO:TX:t=P:problem=kreska pseudotaktowa	!	!	!	!	!	!	!
2AA/	la-	.	.	2A/	mer-	.	.
!	!	!	!	!LO:TX:t=P:problem=kreska pseudotaktowa	!	!	!
1BB-X	-bo-	2F/	-dem	1d	-ce-	1r	.
.	.	2D/	la-	.	.	.	.
=67-	=67-	=67-	=67-	=67-	=67-	=67-	=67-
!LO:TX:t=P:problem=kreska pseudotaktowa	!	!LO:TX:t=P:problem=kreska pseudotaktowa	!	!	!	!	!
1AA	-ris	1E	-bo-	2c\	-dem	2r	.
*	*	*	*	*	*	*custos:d	*
*	*	*	*	*custos:B-	*	*	*
!	!	!	!	!	!	!LO:TX:t=P:problem=kreska pseudotaktowa	!
.	.	.	.	2A/	la-	2c/	mer-
!	!	!	!	!LO:LB:g=original	!	!LO:LB:g=original	!
2rC	.	2D,</	-ris	1B-	-bo-	1d	-ce-
2GG/	mer-	1G/	mer-	.	.	.	.
=68-	=68-	=68-	=68-	=68-	=68-	=68-	=68-
!LO:TX:t=P:problem=kreska pseudotaktowa	!	!	!	!	!	!	!
1C	-ce-	.	.	2G,</	-ris	2c/	-dem
!	!	!LO:TX:t=P:problem=kreska pseudotaktowa	!	!LO:TX:t=P:problem=kreska pseudotaktowa	!	!LO:TX:t=P:problem=kreska pseudotaktowa	!
.	.	2E/	-ce-	2G/	mer-	2c/	la-
*	*	*custos:G	*	*	*	*	*
2BB-/	-dem	2F/	-dem	1B-	-ce-	2.d\	-bo-
!	!	!LO:LB:g=original	!	!	!	!	!
2GG/	la-	2G/	la-	.	.	.	.
!	!	!	!	!	!	!LO:TX:t=P:problem=kreska pseudotaktowa	!
.	.	.	.	.	.	4e\	.
=69-	=69-	=69-	=69-	=69-	=69-	=69-	=69-
*lig	*	*lig	*	*	*	*	*
1D	-bo-	1F	-bo-	2A/	-dem	2f\	.
.	.	.	.	2.B-\	la-	1d	.
!LO:TX:t=P:problem=♭ above	!	!	!	!	!	!	!
!LO:TX:t=P:problem=kreska pseudotaktowa	!	!LO:TX:t=P:problem=kreska pseudotaktowa	!	!	!	!	!
1E-X	.	1G	.	.	.	.	.
.	.	.	.	4A/	.	.	.
!	!	!	!	!	!	!LO:TX:t=P:problem=kreska pseudotaktowa	!
.	.	.	.	1G/	-bo-	2c/	.
*Xlig	*	*Xlig	*	*	*	*	*
=70-	=70-	=70-	=70-	=70-	=70-	=70-	=70-
!LO:TX:t=P:problem=kreska pseudotaktowa	!	!	!	!	!	!LO:TX:t=P:problem=kreska pseudotaktowa	!
1D,<	-ris	1A,<	-ris	.	.	0d	-ris
*	*Xij	*	*Xij	*	*	*	*Xij
!	!	!	!	!LO:TX:t=P:problem=kreska pseudotaktowa	!	!	!
.	.	.	.	2F/	.	.	.
!	!	!LO:TX:t=P:problem=kreska pseudotaktowa	!	!	!	!	!
!	!	!LO:N:acc=#	!	!LO:TX:t=P:problem=kreska pseudotaktowa	!	!	!
1GG	E-	1Bn	E-	1G,<	-ris	.	.
*	*	*	*	*	*Xij	*	*
=71-	=71-	=71-	=71-	=71-	=71-	=71-	=71-
*lig	*	*	*	*	*	*	*
1C	-go	1c	-go	1G	E-	1en	E-
!LO:TX:t=P:problem=kreska pseudotaktowa	!	!LO:TX:t=P:problem=kreska pseudotaktowa	!	!LO:TX:t=P:problem=kreska pseudotaktowa	!	!LO:TX:t=P:problem=kreska pseudotaktowa	!
1D	.	1A	red-	1d	-go	1f	-go
*Xlig	*	*	*	*	*	*	*
=72-	=72-	=72-	=72-	=72-	=72-	=72-	=72-
!LO:TX:t=P:problem=♭ above	!	!	!	!	!	!	!
1E-X	red-	2.G/	-dam	1B-	red-	1.e-X	red-
.	.	4F/	.	.	.	.	.
!	!	!	!	!LO:TX:t=P:problem=kreska pseudotaktowa	!	!	!
1C	-dam	2G/	.	1c	-dam	.	.
!	!	!LO:TX:t=P::problem=kreska pseudotaktowa&colon;między nutą a kropką	!	!	!	!	!
.	.	2.A/	.	.	.	2e-\	-dam
=73-	=73-	=73-	=73-	=73-	=73-	=73-	=73-
0D	Vo-	.	.	2B-\	vo-	0d	Vo-
.	.	4G/	.	.	.	.	.
.	.	1G	vo-	4A/	.	.	.
.	.	.	.	4G/	.	.	.
.	.	.	.	1A	.	.	.
.	.	2F#X/	.	.	.	.	.
=74-	=74-	=74-	=74-	=74-	=74-	=74-	=74-
!LO:TX:t=P:problem=♭ above	!	!	!	!LO:N:acc=#	!	!	!
0E-X;;	-bis.	[0Gl;;	-bis	[0Bnl;;	-bis	[0dl;;	-bis
=75-	=75-	=75-	=75-	=75-	=75-	=75-	=75-
0D	.	0G_	.	0B_	.	0d_	.
=76-	=76-	=76-	=76-	=76-	=76-	=76-	=76-
0GG;	.	0G]	.	0B]	.	0d]	.
==	==	==	==	==	==	==	==
*-	*-	*-	*-	*-	*-	*-	*-
!!!system-decoration: [s1,s2,s3,s4]
!!!RDF**kern: < = below
!!!RDF**kern: l = terminal long
!!!ENC: Marta Lawrence
!!!END: 2021-04-08
!!!ENC: Anastazja Marusiak
!!!END: 2021-03-30
